X: 189
T: the Tea Pot
%R: jig
M: 6/8
L: 1/8
Z: 2014 John Chambers <jc:trillian.mit.edu>
B: Chas & Sam Thompson "Twenty Four Country Dances for the Year 1772", London 1772, p.95
F: http://folkopedia.efdss.org/images/8/89/Thompson_24_1772.PDF
K: G
|:\
(gdB) GGG | (cBA) TB3 | (gdB) GGG | FAF D3 |\
(gdB) GGG | (FAc) TB2A | (Bd)d (dg)f | gGG G3 :|
|:\
bgg aff | (ged e^c)A | (B^cd) (efg) | (fge) (def) |\
gdd BGG | (cBA) TB3 | (gdB) GGG | DEF G3 :|
% - - - - - - - - - - - - - - - - - - - - - - - - -
%%begintext align
%% Three Hands round and foot it on the Mans side .|. Three round
%% on the Wo: side :|. set all four Cross over and right Hands and
%% left .|: :|:
%%endtext
% - - - - - - - - - - - - - - - - - - - - - - - - -

%%sep 1 1 500
%%sep 1 1 500
